X:1
T:Title
%%score { ( 1 3 ) | 2 }
L:1/8
Q:1/4=83
M:6/8
K:F
V:1 treble nm="Grand Piano"
V:3 treble 
V:2 bass 
V:1
 [B,D][C_E][^C=E] [DF]2 [DB] | [_EB]2 [EA] A3 | ACD _E2 A | [DG]3 [B,D]3 | [DF]GA BAB | %5
w: J.~M.~Harris * * * *|||||
 [Ed]2 [Ec] [EG]2 G | F2 B BAB | d3 c2 [Fd] | F2 [FB] BA[DB] | c3 z3 |] %10
w: |||||
V:2
 [B,,F,][B,,F,][B,,G,] [B,,B,]2 [B,,F,] | [C,F,]2 [C,F,] [F,C_E]3 | %2
 [F,C_E][F,A,][F,B,] [F,A,C]2 [F,A,E] | [B,,B,]3 [B,,F,]3 | %4
 [B,,B,][K:treble][B,DF][A,D^F] [G,DG][K:bass][^F,CD][G,B,D] | [C,B,]2 [C,B,] [C,B,]2 [_E,B,^C] | %6
 [F,B,D]2 [F,DF] [G,CE]2 [G,B,E] | [F,B,F]3 [F,A,F]2 [B,,B,] | [D,B,]2 [^C,B,] [=C,F,]2 [B,,F,] | %9
 .[F,,F,A,_E]3 [B,,F,]3 |] %10
V:3
 x6 | x6 | x6 | x6 | x6 | x6 | x6 | x6 | z3 ._E3 | z2 F, [DB]3 |] %10

